build/assets/images/proyectos/logos/logo-rodilla.svg

<svg width="200" height="200" viewBox="0 0 200 200" fill="none" xmlns="http://www.w3.org/2000/svg">
<rect width="200" height="200" fill="white"/>
<path fill-rule="evenodd" clip-rule="evenodd" d="M27.9999 97.5867H29.7866C31.9999 97.5867 33.1199 96.7867 33.1199 95.2134C33.1199 94.44 32.8533 93.8534 32.3466 93.4534C31.8399 93.0534 31.1466 92.8667 30.2666 92.8667H27.9999V97.5867ZM41.0133 106.227V109.64H34.8799L30.3199 100.813H28.0266V106.227H30.5599V109.64H20.0266V106.227H22.7999V92.8667H20.0266V89.4534H32.1866C34.4799 89.4534 36.1333 90.04 37.1199 91.1867C38.1333 92.3334 38.6399 93.64 38.6399 95.1067C38.6399 97.4 37.4666 99.08 35.1466 100.12L38.4266 106.2H41.0133V106.227ZM55.0933 92.84C53.5466 92.84 52.2399 93.4267 51.1466 94.5734C50.0799 95.7467 49.5466 97.4267 49.5466 99.6667C49.5466 101.64 50.0799 103.24 51.1466 104.413C52.2133 105.613 53.5199 106.2 55.0933 106.2C56.6399 106.2 57.9466 105.613 59.0399 104.467C60.1333 103.293 60.6666 101.613 60.6666 99.4267C60.6666 97.48 60.1599 95.88 59.1199 94.6534C58.0799 93.4534 56.7466 92.84 55.0933 92.84ZM55.0933 89.16C58.5599 89.16 61.3066 90.1734 63.3066 92.1734C65.3066 94.1734 66.2933 96.6267 66.2933 99.5334C66.2933 102.44 65.3066 104.893 63.3066 106.893C61.3066 108.893 58.5599 109.88 55.0933 109.88C51.4933 109.88 48.7199 108.84 46.7999 106.787C44.8799 104.707 43.8933 102.307 43.8933 99.5067C43.8933 96.6267 44.8799 94.1734 46.8533 92.1734C48.8533 90.1734 51.5999 89.16 55.0933 89.16ZM78.8533 106.227H80.1066C81.6266 106.227 82.8533 106.04 83.7333 105.64C84.6399 105.24 85.3599 104.547 85.8933 103.56C86.4266 102.547 86.6933 101.24 86.6933 99.64C86.6933 98.0934 86.4266 96.7867 85.8666 95.72C85.3333 94.6534 84.5866 93.9067 83.6533 93.5067C82.7199 93.1067 81.5466 92.8934 80.1066 92.8934H78.8533V106.227ZM70.5599 109.64V106.227H73.6266V92.8667H70.5599V89.4534H80.1066C82.1066 89.4534 83.7333 89.5867 84.9599 89.8267C86.1866 90.0667 87.3599 90.6267 88.4799 91.4534C89.5999 92.3067 90.5066 93.4267 91.1733 94.84C91.8399 96.2534 92.1866 97.8267 92.1866 99.56C92.1866 100.973 91.9466 102.307 91.4666 103.587C90.9866 104.84 90.3999 105.88 89.7066 106.653C89.0133 107.427 88.1599 108.04 87.1999 108.52C86.2133 108.973 85.3333 109.267 84.5066 109.4C83.7066 109.533 82.4266 109.587 80.7199 109.587H70.5599V109.64ZM96.1066 109.64V106.227H99.1733V92.8667H96.1066V89.4534H107.493V92.8667H104.4V106.227H107.493V109.64H96.1066ZM113.093 109.64V106.227H115.973V92.8667H113.093V89.4534H124.16V92.8667H121.227V106.227H127.173V99.9867H131.093V109.613H113.093V109.64ZM136.427 109.64V106.227H139.307V92.8667H136.427V89.4534H147.493V92.8667H144.56V106.227H150.507V99.9867H154.427V109.613H136.427V109.64ZM170.88 99.8267L169.2 93.7467L167.387 99.8267H170.88ZM179.973 106.227V109.64H170.053V106.227H172.64L171.68 102.76H166.453L165.387 106.227H168.08V109.64H159.147V106.227H161.627L165.547 92.8667H162.853V89.4534H176.027V92.8667H173.307L177.547 106.227H179.973Z" fill="black"/>
</svg>

<svg width="200" height="200" fill="none" xmlns="http://www.w3.org/2000/svg"><path fill="#fff" d="M0 0h200v200H0z"/><path fill-rule="evenodd" clip-rule="evenodd" d="M28 97.587h1.787c2.213 0 3.333-.8 3.333-2.374 0-.773-.267-1.36-.773-1.76-.507-.4-1.2-.586-2.08-.586H28v4.72zm13.013 8.64v3.413H34.88l-4.56-8.827h-2.293v5.414h2.533v3.413H20.027v-3.413H22.8v-13.36h-2.773v-3.414h12.16c2.293 0 3.946.587 4.933 1.734 1.013 1.146 1.52 2.453 1.52 3.92 0 2.293-1.173 3.973-3.493 5.013l3.28 6.08h2.586v.027zm14.08-13.387c-1.546 0-2.853.587-3.946 1.733-1.067 1.174-1.6 2.854-1.6 5.094 0 1.973.533 3.573 1.6 4.746 1.066 1.2 2.373 1.787 3.946 1.787 1.547 0 2.854-.587 3.947-1.733 1.093-1.174 1.627-2.854 1.627-5.04 0-1.947-.507-3.547-1.547-4.774-1.04-1.2-2.373-1.813-4.027-1.813zm0-3.68c3.467 0 6.214 1.013 8.214 3.013s2.986 4.454 2.986 7.36c0 2.907-.986 5.36-2.986 7.36s-4.747 2.987-8.214 2.987c-3.6 0-6.373-1.04-8.293-3.093-1.92-2.08-2.907-4.48-2.907-7.28 0-2.88.987-5.334 2.96-7.334 2-2 4.747-3.013 8.24-3.013zm23.76 17.067h1.254c1.52 0 2.746-.187 3.626-.587.907-.4 1.627-1.093 2.16-2.08.534-1.013.8-2.32.8-3.92 0-1.547-.266-2.853-.826-3.92-.534-1.067-1.28-1.813-2.214-2.213-.933-.4-2.106-.614-3.546-.614h-1.254v13.334zm-8.293 3.413v-3.413h3.067v-13.36H70.56v-3.414h9.547c2 0 3.626.134 4.853.374 1.227.24 2.4.8 3.52 1.626 1.12.854 2.027 1.974 2.693 3.387.667 1.413 1.014 2.987 1.014 4.72 0 1.413-.24 2.747-.72 4.027-.48 1.253-1.067 2.293-1.76 3.066-.694.774-1.547 1.387-2.507 1.867-.987.453-1.867.747-2.693.88-.8.133-2.08.187-3.787.187H70.56v.053zm25.547 0v-3.413h3.066v-13.36h-3.066v-3.414h11.386v3.414H104.4v13.36h3.093v3.413H96.107zm16.986 0v-3.413h2.88v-13.36h-2.88v-3.414h11.067v3.414h-2.933v13.36h5.946v-6.24h3.92v9.626h-18v.027zm23.334 0v-3.413h2.88v-13.36h-2.88v-3.414h11.066v3.414h-2.933v13.36h5.947v-6.24h3.92v9.626h-18v.027zm34.453-9.813l-1.68-6.08-1.813 6.08h3.493zm9.093 6.4v3.413h-9.92v-3.413h2.587l-.96-3.467h-5.227l-1.066 3.467h2.693v3.413h-8.933v-3.413h2.48l3.92-13.36h-2.694v-3.414h13.174v3.414h-2.72l4.24 13.36h2.426z" fill="#000"/></svg>
